!!!!SEGMENT: pl-kk--kk-i-389--010-006_anonim--missa-no-10-benedictus.krn
!!!cenid: 17xx:2527
!!!COM: Anonim
!!!COM-rismID: pe30004985
!!!CDT:
!!!CNT:
!!!OPR: [Missa] No. 10.
!!!OTL: Benedictus
!!!OMV: 006
!!!PDT:
!!!AGN: Sacred; Mass
!!!YEC: Copyright 2022 Narodowy Instytut Fryderyka Chopina (https://polishscores.org)
!!!YEM: License CC-BY-4.0 (https://creativecommons.org/licenses/by/4.0)
!!!SMS-siglum: PL-Kk
!!!SMS-shelfmark: Kk.I.389
!!!SMS-shelfwork: 010-006 M
!!!SMS-variant:
!!!SMS-altvar:
!!!NIFC-rismSourceID: 1001146182
!!!NIFC-rismChildID: 1001147254
!!!NIFC-islandoraID: pl-kk:6976
!!!URL-pdf-islandora: https://repozytorium.nifc.pl/islandora/object/pl-kk%3A6976/datastream/PDF/view
!!!URL-scan: https://polish.musicsources.pl/pl/lokalizacje/galeria/rekopisy/5999/1 @EN{Scan on Polish Music Sources Website} @PL{Skany w portalu Dziedzictwo Muzyki Polskiej w otwartym dostępie}
!!!IIIF:
!!!AIN: 1 alto 1 bass 1 soprn 1 tenor
!!!key:
**kern	**text	**kern	**text	**kern	**text	**kern	**text
*part4	*part4	*part3	*part3	*part2	*part2	*part1	*part1
*staff4	*staff4	*staff3	*staff3	*staff2	*staff2	*staff1	*staff1
*Ibass	*	*Itenor	*	*Ialto	*	*Isoprn	*
*I"Basso.	*	*I"Tenore.	*	*I"Alto.	*	*I"Soprano.	*
*I'B	*	*I'T	*	*I'A	*	*I'S	*
*clefF4	*	*clefC4	*	*clefC3	*	*clefC1	*
*k[b-]	*	*k[b-]	*	*k[b-]	*	*k[b-]	*
*F:	*	*F:	*	*F:	*	*F:	*
*M4/4	*	*M4/4	*	*M4/4	*	*M4/4	*
*met(c)	*	*met(c)	*	*met(c)	*	*met(c)	*
!LO:TX:a:t=all\right	!	!LO:TX:a:t=all\right	!	!LO:TX:a:t=all\right	!	!LO:TX:t=P:problem:metrum z kropką	!
!LO:TX:t=P:problem:metrum z kropką	!	!LO:TX:t=P:problem:metrum z kropką	!	!LO:TX:t=P:problem:metrum z kropką	!	!LO:TX:a:t=all\right	!
4r	.	8A\L	Be-	4r	.	8f/	Be-
.	.	8B-\J	-ne-	.	.	8g/	-ne-
=1	=1	=1	=1	=1	=1	=1	=1
!	!	!LO:TX:a:t=2\right	!	!LO:TX:a:t=1.	!	!LO:TX:a:t=2\right	!
4r	.	2c\	-di-	1r	.	2a\	-di-
8F\L	Be-	.	.	.	.	.	.
8F\J	-ne-	.	.	.	.	.	.
4F\	-di-	8d\L	-ctus	.	.	8b-\L	-ctus
.	.	8e\J	.	.	.	8cc\J	.
8F\L	-ctus	8f\L	qui	.	.	8dd\L	qui
8F\J	qui	8d\J	.	.	.	8b-\J	.
=2	=2	=2	=2	=2	=2	=2	=2
!LO:TX:a:t=2\right	!	!	!	!	!	!	!
2F\	ve-	4.c\	ve-	2r	.	4.a\	ve-
.	.	8d\	.	.	.	8b-\	.
4F\	-nit	4c\	-nit	4r	.	4a\	-nit
4r	.	4r	.	8c\L	Be-	4r	.
.	.	.	.	8c\J	-ne-	.	.
=3	=3	=3	=3	=3	=3	=3	=3
!	!	!	!	!LO:TX:a:t=2\right	!	!	!
4r	.	4r	.	2f\	-di-	4r	.
2F\	Be-	2A\	Be-	.	.	4.cc\	Be-
.	.	.	.	4f\	-ctus	.	.
.	.	.	.	.	.	8ff\L	.
4F\	-ne-	4A\	-ne-	4f\	qui	8cc\	-ne-
.	.	.	.	.	.	8a\J	.
=4	=4	=4	=4	=4	=4	=4	=4
2BB-/	-di-	2d\	-di-	4f\	ve-	2.g\	-di-
.	.	.	.	8e\L	.	.	.
.	.	.	.	8d\J	.	.	.
4C/	-ctus	4c\	-ctus	4e\	-nit	.	.
4C/	qui	4c\	qui	4e\	qui	8cc\	-ctus
.	.	.	.	.	.	8b-\	qui
!	!	!LO:LB:g=original	!	!	!	!LO:LB:g=original	!
=5	=5	=5	=5	=5	=5	=5	=5
2F\	ve-	2c\	ve-	4.f\	ve-	4.a\	ve-
!LO:LB:g=original	!	!	!	!	!	!	!
.	.	.	.	16a\LL	.	16cc\LL	.
.	.	.	.	16g\JJ	.	16b-\JJ	.
4F\	-nit	4c\	-nit	4f\	-nit,	4a\	-nit
8F\L	in	4r	.	4r	.	8a\L	in
!	!	!	!	!LO:LB:g=original	!	!	!
8G\J	.	.	.	.	.	8b-\J	.
=6	=6	=6	=6	=6	=6	=6	=6
!	!	!LO:TX:a:t=1.	!	!	!	!	!
2A\	no-	1r	.	2f\	qui	2cc\	no-
8B-\L	.	.	.	4f\	ve-	8dd\L	-mi-
8c\J	.	.	.	.	.	8ee\J	.
8d\	-mi-	.	.	8f\L	-nit	8ff\L	-ne
8B-\	-ne	.	.	8f\J	in	8dd\J	.
=7	=7	=7	=7	=7	=7	=7	=7
4.A\	Do-	2r	.	4.f\	no-	4.cc\	Do-
8B-\	-mi-	.	.	8f\	-mi-	8dd\	-mi-
4A\	-ni	4r	.	4f\	-ne	4cc\	-ni
4F\	in	4c\	in	4a\	in	4ff\	in
=8	=8	=8	=8	=8	=8	=8	=8
4BB-/	No-	4d\	No-	4g\	no-	4.ff\	no-
8BB-/	-mi-	8d\L	-mi-	8g\L	-mi-	.	.
8BB-/	-ne	8d\J	-ne	8g\J	-ne	16ee\LL	-mi-
.	.	.	.	.	.	16dd\JJ	-ne
4C/	Do-	4.c\	Do-	4.g\	Do-	4.ee\	Do-
4C/	-mi-	.	.	.	.	.	.
.	.	8c\	-mi-	8g\	-mi-	8ee\	-mi-
=9	=9	=9	=9	=9	=9	=9	=9
2.F\	-ni	2c\	-ni,	2a\	-ni	2ff\	-ni
.	.	4c\	Be-	4a\	qui	2r	.
4r	.	4A\	-ne-	4f\	.	.	.
!	!	!	!	!	!	!LO:LB:g=original	!
=10	=10	=10	=10	=10	=10	=10	=10
!	!	!	!	!	!	!LO:TX:a:t=3.	!
2D\	ve-	2A\	-di-	2f\	ve-	1r	.
4G\	-nit	4Bn\	-ctus	4d\	-nit	.	.
4F\	in	4B\	qui	4d\	qui	.	.
!LO:LB:g=original	!	!	!	!	!	!	!
=11	=11	=11	=11	=11	=11	=11	=11
4.E\	no-	4.c\	ve-	4.g\	ve-	1r	.
8D\	-mi-	16A\LL	.	8f\	.	.	.
.	.	16Bn\JJ	.	.	.	.	.
!	!	!LO:LB:g=original	!	!	!	!	!
4C/	-ne	4c\	-nit	4e\	-nit	.	.
4C/	in	8e\L	qui	8g\L	in	.	.
.	.	8c\J	.	8e\J	.	.	.
!	!	!	!	!LO:LB:g=original	!	!	!
=12	=12	=12	=12	=12	=12	=12	=12
2G\	No-	8c\L	ve-	8e\L	No-	1r	.
.	.	8Bn\	.	8d\	.	.	.
.	.	8d\	-nit	8f\	-mi-	.	.
.	.	8c\J	in	8e\J	-ne	.	.
4G\	-mi-	8e\L	no-	8g\L	No-	.	.
.	.	8d\	.	8f\	.	.	.
4G\	-ne	8c\	-mi-	8e\	-mi-	.	.
.	.	8B\J	-ne	8d\J	-ne	.	.
=13	=13	=13	=13	=13	=13	=13	=13
4.C/	Do-	4.c\	Do-	4.e\	Do-	2r	.
8C/	-mi-	16e\LL	-mi-	16g\LL	-mi-	.	.
.	.	16d\JJ	.	16f\JJ	.	.	.
4C/	-ni	4c\	-ni	4e\	-ni	4r	.
4r	.	4r	.	4r	.	4cc\	qui
=14	=14	=14	=14	=14	=14	=14	=14
2r	.	2r	.	2r	.	4.cc\	ve-
.	.	.	.	.	.	8b-\	.
4r	.	4r	.	4r	.	4g\	-nit
4C/	qui	4e\	in	4g\	qui	4cc\	qui
=15	=15	=15	=15	=15	=15	=15	=15
4.F\	ve-	4.f\	no-	4.a\	ve-	2cc\	ve-
8G\	.	8e\	-mi-	8b-\	.	.	.
4A\	-nit	4f\	-ne	4a\	-nit	4cc\	-nit
4r	.	4r	.	4a\	in	4ff\	in
!	!	!LO:LB:g=original	!	!	!	!	!
=16	=16	=16	=16	=16	=16	=16	=16
2r	.	2r	.	4.g\	no-	4.ee\	no-
.	.	.	.	8f\	.	8dd\	.
4r	.	4r	.	4e\	-mi-	4cc\	-mi-
8c\L	in	4e\	Do-	4g\	-ne	4cc\	-ne
8B-\J	.	.	.	.	.	.	.
!	!	!	!	!LO:LB:g=original	!	!	!
=17	=17	=17	=17	=17	=17	=17	=17
4.A\	no-	4.f\	.	4.a\	Do-	4.cc\	Do-
8G\	-mi-	8e\	-mi-	8b-\	-mi-	8cc\	-mi-
4F\	-ne	4f\	-ni	4a\	-ni	4cc\	-ni
4r	.	4r	.	4r	.	4r	.
!LO:LB:g=original	!	!	!	!	!	!	!
=18	=18	=18	=18	=18	=18	=18	=18
!LO:TX:a:t=1.	!	!LO:TX:a:t=1	!	!	!	!LO:TX:a:t=3.	!
1r	.	1r	.	2f\	ve-	1r	.
.	.	.	.	8e\L	-nit	.	.
.	.	.	.	8f\	.	.	.
.	.	.	.	8a\	in	.	.
.	.	.	.	8f\J	.	.	.
=19	=19	=19	=19	=19	=19	=19	=19
2F\	No-	2A\	No-	2c\	no-	1r	.
8qF/	-mi-	8qA/	-mi-	.	.	.	.
4E\	.	4G/	.	4c\	-mi-	.	.
8D\L	-ne	8F/L	-ne	4c\	-ne	.	.
8E\J	.	8G/J	.	.	.	.	.
=20	=20	=20	=20	=20	=20	=20	=20
4.F\	Do-	4.A\	Do-	4.c\	Do-	1r	.
8F\	-mi-	8B-\	-mi-	8d\	-mi-	.	.
4F\	-ni	4A\	-ni	4c\	-ni	.	.
!	!	!	!	!LO:TX:a:t=1.	!	!	!
4r	.	4r	.	4r	.	.	.
!	!	!	!	!	!	!LO:LB:g=original	!
=21	=21	=21	=21	=21	=21	=21	=21
!LO:TX:a:t=2	!	!LO:TX:a:t=2.	!	!	!	!	!
1r	.	1r	.	1r	.	2f/	O-
.	.	.	.	.	.	8qa/	.
.	.	.	.	.	.	4g\	.
.	.	.	.	.	.	8f/L	.
.	.	.	.	.	.	8g/J	.
=22	=22	=22	=22	=22	=22	=22	=22
1r	.	1r	.	2f\	O-	2a\	-san-
.	.	.	.	8qa/	.	8qcc/	.
.	.	.	.	4g\	.	4b-\	.
.	.	.	.	8f\L	.	8a\L	-na
.	.	.	.	8g\J	.	8b-\J	.
!	!	!	!	!LO:LB:g=original	!	!	!
=23	=23	=23	=23	=23	=23	=23	=23
!	!	!	!	!	!	!	!LO:SIC:v:s=in
2F\	O-	4f\	O-	2a\	-san-	4cc\	i
.	.	4c\	.	.	.	2ff\	.
4D\	-san-	4.d\	-san-	4b-\	.	.	.
4BB-/	-na	.	.	4g\	-na	8dd\L	ex-
.	.	8d\	-na	.	.	8b-\J	.
=24	=24	=24	=24	=24	=24	=24	=24
2C/	in	2c\	in	2e\	in	2g\	-cel-
2F\	ex-	2c\	ex-	2f\	ex-	2a\	-sis
!	!	!LO:LB:g=original	!	!	!	!	!
=25	=25	=25	=25	=25	=25	=25	=25
!	!	!LO:SIC:v:s=2G\	!	!	!	!	!
1C	-cel-	2A\	-cel-	4f\	-cel-	4g\	in
.	.	.	.	8e\L	.	4g\	ex-
.	.	.	.	8d\J	.	.	.
.	.	4c\	-sis	2e\	.	2g\	-cel-
.	.	8c\L	in	.	.	.	.
.	.	8c\J	ex-	.	.	.	.
=26	=26	=26	=26	=26	=26	=26	=26
1FF	-sis.	2A\	-cel-	1f	-sis.	1f	-sis.
.	.	2A\	-sis.	.	.	.	.
==	==	==	==	==	==	==	==
*-	*-	*-	*-	*-	*-	*-	*-
!!!system-decoration: [(s1,s2,s3,s4)]
!!!YEM: Copyright © 2023 by [Copyright Holder]
!!!YEC: Copyright 2022 Narodowy Instytut Fryderyka Chopina (https://polishscores.org)
!!!ENC: Anastazja Marusiak
!!!END: 2023-11-13
!!!ENC: Leszek Kubiak
!!!END: 2024-01-22
